X: 1001
T: Her Gece Yollarda
C: Kâsım İnaltekin
O: Turkey
F: http://compmusic.upf.edu/node/140
N: huzzam--sarki--semai--her_gece--kasim_inaltekin
N: makam= huzzam
N: form= sarki
N: usul= semai = 3/4
M: 3/4
L: 1/16
K: C _1/4B _3/4e ^3/4f 
Q: 1/4=150
%%MIDI tuningsystem comma53
g4 f4 a4  | f4 e4 d4  | f4 e4 g4  | e4 d4 c4  | \
w:  ARANAĞME  |   |   |   | 
d8 e4  | f4 e4 f4  | d12  | d2e2 f2a2 g4  | 
w:   |   |   |   | 
g4 f4 a4  | f4 e4 d4  | f4 e4 g4  | e4 d4 c4  | \
w:   |   |   |   | 
d4 e4 f4  | B4 c4 d4  | B12  | G2^A2 B2c2 d4  | 
w:   |   |   |   | 
d8 c2B2  | B12  | c4 d8  | f12  | e8 d4  | e4 c4 c2B2  | B12  | \
w:  Her  ge  |  ce   |  yol lar  |  da   |  göz le  |  dim  *  se  |  ni    | 
d2c2 B2c2 d4  | c4 d8  | 
w:  SAZ  |  İ nan   | 
d12  | d4 c2B2 A2G2  | g12  | f8 g4  | a2g2 f2e2 e2d2  | \
w:  ki   |  gö nül  |  den   |  öz le  |  dim  *  *  *  se  | 
d4 c4 e4  | d2c2 B2^A2 B4  | 
w:  ni   SAZ  |   | 
d8 c2B2  | B12  | c4 d8  | f12  | e8 d4  | e4 c4 c2B2  | B12  | \
w:  Her  ge  |  ce   |  yol lar  |  da   |  göz le  |  dim  *  se  |  ni    | 
d2c2 B2c2 d4  | c4 d8  | 
w:  SAZ  |  İ nan   | 
d12  | d4 c2B2 A2G2  | g12  | f8 g4  | a2g2 f2e2 e2d2  | d12  | \
w:  ki   |  gö nül  |  den   |  öz le  |  dim  *  *  *  se  |  ni    | 
a2g2 f2g2 a4  | 
w:  SAZ  | 
a4 a4 b4  | c'4 _7/8b4 a4  | g4 f4 e4  | d12  | \
w:  Gül ler  |  de   |  a ra  |  dım   | 
d4 a8  | g2f2 e2d2 c2d2  | e12  | e2d2 c2d2 e4  | 
w:  ya kan   |  bû *  *  *  se  |  ni    |  SAZ  | 
d4 d4 e4  | f4 e4 d4  | d4 c4 B4  | g12  | \
w:  U nut  |  mam   |  sev *  gi  |  lim_  | 
g4 f4 e4  | d4 c4 c2B2  | B12  | d2e2 f2g2 a4  | 
w:  u nut  |  mam  *  se  |  ni    |  SAZ  | 
a4 a4 b4  | c'4 _7/8b4 a4  | g4 f4 e4  | d12  | \
w:  Gül ler  |  de   |  a ra  |  dım   | 
d4 a8  | g2f2 e2d2 c2d2  | e12  | e2d2 c2d2 e4  | 
w:  ya kan   |  bû *  *  *  se  |  ni    |  SAZ  | 
d4 d4 e4  | f4 e4 d4  | d4 c4 B4  | g12  | \
w:  U nut  |  mam   |  sev *  gi  |  lim_  | 
g4 f4 e4  | d4 c4 c2B2  | B12  | FGAB cdef g4  | 
w:  u nut  |  mam  *  se  |  ni    |  SAZ  | 
g4 f4 a4  | f4 e4 d4  | f4 e4 g4  | e4 d4 c4  | \
w:  ARANAĞME  |   |   |   | 
d8 e4  | f4 e4 f4  | d12  | d2e2 f2a2 g4  | 
w:   |   |   |   | 
g4 f4 a4  | f4 e4 d4  | f4 e4 g4  | e4 d4 c4  | \
w:   |   |   |   | 
d4 e4 f4  | B4 c4 d4  | B12  | G2^A2 B2c2 d4  | 
w:   |   |   |   | 
d4 d4 c2B2  | B12  | c4 d8  | f12  | e8 d4  | \
w:  Yıl lar   |  var   |  bu  has  |  ret   |  câ nı  | 
e4 c4 c2B2  | B12  | d2c2 B2c2 d4  | c4 d8  | 
w:  ma  yet  |  ti    |  SAZ  |  Hic râ  | 
d12  | d4 c4 B4  | g12  | f8 g4  | a2g2 f2e2 e2d2  | \
w:  nın   |  kal bim  |  de   |  sab rı   |  tü *  ket  | 
d4 c4 e4  | d2c2 B2^A2 B4  | 
w:  ti   SAZ  |   | 
d4 d4 c2B2  | B12  | c4 d8  | f12  | e8 d4  | \
w:  Yıl lar   |  var   |  bu  has  |  ret   |  câ nı  | 
e4 c4 c2B2  | B12  | d2c2 B2c2 d4  | c4 d8  | 
w:  ma  yet  |  ti    |  SAZ  |  Hic râ  | 
d12  | d4 c4 B4  | g12  | f8 g4  | a2g2 f2e2 e2d2  | d12  | \
w:  nın   |  kal bim  |  de   |  sab rı   |  tü *  ket  |  ti    | 
a2g2 f2g2 a4  | a4 a4 b4  | 
w:  SAZ  |  Ve fa  | 
c'4 _7/8b4 a4  | g4 f4 e4  | d12  | d8 a4  | \
w:  sız   |  gör  *  ba  |  na   |  aşk  ne  | 
g2f2 e2d2 c2d2  | e12  | e2d2 c2d2 e4  | 
w:  ler_ *  et  |  ti    |  SAZ  | 
d4 d4 e4  | f4 e4 d4  | d4 c4 B4  | g12  | \
w:  U nut  |  mam   |  sev *  gi  |  lim_  | 
g4 f4 e4  | d4 c4 c2B2  | B12  | d2e2 f2g2 a4  | 
w:  u nut  |  mam  *  se  |  ni    |  SAZ  | 
a4 a4 b4  | c'4 _7/8b4 a4  | g4 f4 e4  | d12  | \
w:  Ve fa  |  sız   |  gör  *  ba  |  na   | 
d8 a4  | g2f2 e2d2 c2d2  | e12  | e2d2 c2d2 e4  | 
w:  aşk  ne  |  ler_ *  et  |  ti    |  SAZ  | 
d4 d4 e4  | f4 e4 d4  | d4 c4 B4  | g12  | \
w:  U nut  |  mam   |  sev *  gi  |  lim_  | 
g4 f4 e4  | d4 c4 c2B2  | B12  | B4 z8  | |


